packages/icons/src/svg/56/services_outline_56.svg

<?xml version="1.0" encoding="UTF-8"?>
<svg width="56px" height="56px" viewBox="0 0 56 56" version="1.1" xmlns="http://www.w3.org/2000/svg" xmlns:xlink="http://www.w3.org/1999/xlink">
    <!-- Generator: Sketch 61.2 (89653) - https://sketch.com -->
    <title>Icons 56/services_outline_56</title>
    <desc>Created with Sketch.</desc>
    <g id="Icons-56/services_outline_56" stroke="none" stroke-width="1" fill="none" fill-rule="evenodd">
        <g id="services_outline_56">
            <rect x="0" y="0" width="56" height="56"></rect>
            <path d="M13.909713,30 L18.4376649,30.0018377 C20.4676076,30.0240578 21.5382254,30.2507891 22.6495125,30.845112 C23.7257301,31.4206794 24.5793206,32.2742699 25.154888,33.3504875 C25.7822288,34.5235128 26,35.6512244 26,37.909713 L26,37.909713 L26,42.090287 C26,44.3487756 25.7822288,45.4764872 25.154888,46.6495125 C24.5793206,47.7257301 23.7257301,48.5793206 22.6495125,49.154888 C21.4764872,49.7822288 20.3487756,50 18.090287,50 L18.090287,50 L13.909713,50 C11.6512244,50 10.5235128,49.7822288 9.35048745,49.154888 C8.27426993,48.5793206 7.42067939,47.7257301 6.84511196,46.6495125 C6.21777116,45.4764872 6,44.3487756 6,42.090287 L6,42.090287 L6.0018377,37.5623351 C6.02405782,35.5323924 6.25078909,34.4617746 6.84511196,33.3504875 C7.42067939,32.2742699 8.27426993,31.4206794 9.35048745,30.845112 C10.5235128,30.2177712 11.6512244,30 13.909713,30 L13.909713,30 Z M37.909713,30 L42.4376649,30.0018377 C44.4676076,30.0240578 45.5382254,30.2507891 46.6495125,30.845112 C47.7257301,31.4206794 48.5793206,32.2742699 49.154888,33.3504875 C49.7822288,34.5235128 50,35.6512244 50,37.909713 L50,37.909713 L50,42.090287 C50,44.3487756 49.7822288,45.4764872 49.154888,46.6495125 C48.5793206,47.7257301 47.7257301,48.5793206 46.6495125,49.154888 C45.4764872,49.7822288 44.3487756,50 42.090287,50 L42.090287,50 L37.909713,50 C35.6512244,50 34.5235128,49.7822288 33.3504875,49.154888 C32.2742699,48.5793206 31.4206794,47.7257301 30.845112,46.6495125 C30.2177712,45.4764872 30,44.3487756 30,42.090287 L30,42.090287 L30.0018377,37.5623351 C30.0240578,35.5323924 30.2507891,34.4617746 30.845112,33.3504875 C31.4206794,32.2742699 32.2742699,31.4206794 33.3504875,30.845112 C34.5235128,30.2177712 35.6512244,30 37.909713,30 L37.909713,30 Z M18.090287,33 L13.6339708,33.0010747 C12.0346087,33.0140656 11.4085429,33.1465329 10.765284,33.4905516 C10.2118719,33.7865196 9.78651959,34.2118719 9.49055156,34.765284 C9.12742078,35.4442795 9,36.1041185 9,37.909713 L9,37.909713 L9.00107469,42.3660292 C9.01406565,43.9653913 9.14653293,44.5914571 9.49055156,45.234716 C9.78651959,45.7881281 10.2118719,46.2134804 10.765284,46.5094484 C11.3728063,46.8343549 11.9649928,46.9705628 13.3762526,46.9956381 L13.3762526,46.9956381 L13.909713,47 L18.090287,47 C19.8958815,47 20.5557205,46.8725792 21.234716,46.5094484 C21.7881281,46.2134804 22.2134804,45.7881281 22.5094484,45.234716 C22.8343549,44.6271937 22.9705628,44.0350072 22.9956381,42.6237474 L22.9956381,42.6237474 L23,42.090287 L23,37.909713 C23,36.1041185 22.8725792,35.4442795 22.5094484,34.765284 C22.2134804,34.2118719 21.7881281,33.7865196 21.234716,33.4905516 C20.5557205,33.1274208 19.8958815,33 18.090287,33 L18.090287,33 Z M42.090287,33 L37.6339708,33.0010747 C36.0346087,33.0140656 35.4085429,33.1465329 34.765284,33.4905516 C34.2118719,33.7865196 33.7865196,34.2118719 33.4905516,34.765284 C33.1274208,35.4442795 33,36.1041185 33,37.909713 L33,37.909713 L33.0010747,42.3660292 C33.0140656,43.9653913 33.1465329,44.5914571 33.4905516,45.234716 C33.7865196,45.7881281 34.2118719,46.2134804 34.765284,46.5094484 C35.3728063,46.8343549 35.9649928,46.9705628 37.3762526,46.9956381 L37.3762526,46.9956381 L37.909713,47 L42.090287,47 C43.8958815,47 44.5557205,46.8725792 45.234716,46.5094484 C45.7881281,46.2134804 46.2134804,45.7881281 46.5094484,45.234716 C46.8343549,44.6271937 46.9705628,44.0350072 46.9956381,42.6237474 L46.9956381,42.6237474 L47,42.090287 L47,37.909713 C47,36.1041185 46.8725792,35.4442795 46.5094484,34.765284 C46.2134804,34.2118719 45.7881281,33.7865196 45.234716,33.4905516 C44.5557205,33.1274208 43.8958815,33 42.090287,33 L42.090287,33 Z M38.228432,4.82460117 C39.3964203,4.4705881 40.6035797,4.4705881 41.771568,4.82460117 C43.0446191,5.21045839 43.9960191,5.85388345 45.5930117,7.45087608 L45.5930117,7.45087608 L48.7934577,10.653921 C50.213132,12.1050193 50.8098499,13.0223836 51.1753988,14.228432 C51.5294119,15.3964203 51.5294119,16.6035797 51.1753988,17.771568 C50.7895416,19.0446191 50.1461165,19.9960191 48.5491239,21.5930117 L48.5491239,21.5930117 L45.5930117,24.5491239 C43.9960191,26.1461165 43.0446191,26.7895416 41.771568,27.1753988 C40.6035797,27.5294119 39.3964203,27.5294119 38.228432,27.1753988 C36.9553809,26.7895416 36.0039809,26.1461165 34.4069883,24.5491239 L34.4069883,24.5491239 L31.4508761,21.5930117 C29.8538835,19.9960191 29.2104584,19.0446191 28.8246012,17.771568 C28.4705881,16.6035797 28.4705881,15.3964203 28.8246012,14.228432 C29.2104584,12.9553809 29.8538835,12.0039809 31.4508761,10.4069883 L31.4508761,10.4069883 L34.653921,7.20654226 C36.1050193,5.78686798 37.0223836,5.19015012 38.228432,4.82460117 Z M13.909713,6 L18.4376649,6.0018377 C20.4676076,6.02405782 21.5382254,6.25078909 22.6495125,6.84511196 C23.7257301,7.42067939 24.5793206,8.27426993 25.154888,9.35048745 C25.7822288,10.5235128 26,11.6512244 26,13.909713 L26,13.909713 L26,18.090287 C26,20.3487756 25.7822288,21.4764872 25.154888,22.6495125 C24.5793206,23.7257301 23.7257301,24.5793206 22.6495125,25.154888 C21.4764872,25.7822288 20.3487756,26 18.090287,26 L18.090287,26 L13.909713,26 C11.6512244,26 10.5235128,25.7822288 9.35048745,25.154888 C8.27426993,24.5793206 7.42067939,23.7257301 6.84511196,22.6495125 C6.21777116,21.4764872 6,20.3487756 6,18.090287 L6,18.090287 L6.0018377,13.5623351 C6.02405782,11.5323924 6.25078909,10.4617746 6.84511196,9.35048745 C7.42067939,8.27426993 8.27426993,7.42067939 9.35048745,6.84511196 C10.5235128,6.21777116 11.6512244,6 13.909713,6 L13.909713,6 Z M40.901372,7.6956217 C40.3007695,7.51358125 39.6992305,7.51358125 39.098628,7.6956217 C38.3617335,7.9189718 37.8050568,8.2954483 36.5283086,9.57219642 L36.5283086,9.57219642 L33.3779772,12.7240477 C32.2562434,13.8641535 31.9072165,14.4005174 31.6956217,15.098628 C31.5135813,15.6992305 31.5135813,16.3007695 31.6956217,16.901372 C31.8954613,17.5606987 32.2178868,18.0757513 33.1980673,19.0913936 L33.1980673,19.0913936 L33.5721964,19.4716914 L36.5283086,22.4278036 C37.8050568,23.7045517 38.3617335,24.0810282 39.098628,24.3043783 C39.6992305,24.4864187 40.3007695,24.4864187 40.901372,24.3043783 C41.5606987,24.1045387 42.0757513,23.7821132 43.0913936,22.8019327 L43.0913936,22.8019327 L43.4716914,22.4278036 L46.4278036,19.4716914 C47.7045517,18.1949432 48.0810282,17.6382665 48.3043783,16.901372 C48.4864187,16.3007695 48.4864187,15.6992305 48.3043783,15.098628 C48.0810282,14.3617335 47.7045517,13.8050568 46.4278036,12.5283086 L46.4278036,12.5283086 L43.2759523,9.37797716 C42.1358465,8.25624337 41.5994826,7.90721654 40.901372,7.6956217 Z M18.090287,9 L13.6339708,9.00107469 C12.0346087,9.01406565 11.4085429,9.14653293 10.765284,9.49055156 C10.2118719,9.78651959 9.78651959,10.2118719 9.49055156,10.765284 C9.12742078,11.4442795 9,12.1041185 9,13.909713 L9,13.909713 L9.00107469,18.3660292 C9.01406565,19.9653913 9.14653293,20.5914571 9.49055156,21.234716 C9.78651959,21.7881281 10.2118719,22.2134804 10.765284,22.5094484 C11.3728063,22.8343549 11.9649928,22.9705628 13.3762526,22.9956381 L13.3762526,22.9956381 L13.909713,23 L18.090287,23 C19.8958815,23 20.5557205,22.8725792 21.234716,22.5094484 C21.7881281,22.2134804 22.2134804,21.7881281 22.5094484,21.234716 C22.8343549,20.6271937 22.9705628,20.0350072 22.9956381,18.6237474 L22.9956381,18.6237474 L23,18.090287 L23,13.909713 C23,12.1041185 22.8725792,11.4442795 22.5094484,10.765284 C22.2134804,10.2118719 21.7881281,9.78651959 21.234716,9.49055156 C20.5557205,9.12742078 19.8958815,9 18.090287,9 L18.090287,9 Z" id="↳-Icon-Color" fill="currentColor" fill-rule="nonzero"></path>
        </g>
    </g>
</svg>

<svg xmlns="http://www.w3.org/2000/svg" width="56" height="56" viewBox="0 0 56 56" fill="currentColor"><path d="m13.91 30 4.528.002c2.03.022 3.1.249 4.212.843a6.04 6.04 0 0 1 2.505 2.505c.627 1.173.845 2.301.845 4.56v4.18c0 2.259-.218 3.386-.845 4.56a6.04 6.04 0 0 1-2.506 2.505c-1.172.627-2.3.845-4.559.845h-4.18c-2.259 0-3.386-.218-4.56-.845a6.04 6.04 0 0 1-2.505-2.505C6.218 45.477 6 44.349 6 42.09l.002-4.528c.022-2.03.249-3.1.843-4.212a6.04 6.04 0 0 1 2.505-2.505c1.174-.627 2.301-.845 4.56-.845m24 0 4.528.002c2.03.022 3.1.249 4.212.843a6.04 6.04 0 0 1 2.505 2.505c.627 1.173.845 2.301.845 4.56v4.18c0 2.259-.218 3.386-.845 4.56a6.04 6.04 0 0 1-2.505 2.505c-1.173.627-2.301.845-4.56.845h-4.18c-2.259 0-3.386-.218-4.56-.845a6.04 6.04 0 0 1-2.505-2.505c-.627-1.173-.845-2.301-.845-4.56l.002-4.528c.022-2.03.249-3.1.843-4.212a6.04 6.04 0 0 1 2.505-2.505c1.173-.627 2.301-.845 4.56-.845m-19.82 3-4.456.001c-1.6.013-2.226.146-2.869.49a3.04 3.04 0 0 0-1.274 1.274c-.364.68-.491 1.34-.491 3.145l.001 4.456c.013 1.6.146 2.225.49 2.869q.444.83 1.274 1.274c.608.325 1.2.462 2.611.487l.534.004h4.18c1.806 0 2.466-.127 3.145-.49a3.04 3.04 0 0 0 1.274-1.275c.325-.608.462-1.2.487-2.611L23 42.09v-4.18c0-1.806-.127-2.466-.49-3.145a3.04 3.04 0 0 0-1.275-1.275c-.68-.363-1.34-.49-3.145-.49m24 0-4.456.001c-1.6.013-2.226.146-2.869.49a3.04 3.04 0 0 0-1.274 1.274c-.364.68-.491 1.34-.491 3.145l.001 4.456c.013 1.6.146 2.225.49 2.869q.443.83 1.274 1.274c.608.325 1.2.462 2.611.487l.534.004h4.18c1.806 0 2.466-.127 3.145-.49a3.04 3.04 0 0 0 1.274-1.275c.325-.608.462-1.2.487-2.611L47 42.09v-4.18c0-1.806-.127-2.466-.49-3.145a3.04 3.04 0 0 0-1.275-1.275c-.68-.363-1.34-.49-3.145-.49M38.228 4.825a6.04 6.04 0 0 1 3.544 0c1.273.385 2.224 1.029 3.821 2.626l3.2 3.203c1.42 1.451 2.017 2.368 2.382 3.574a6.04 6.04 0 0 1 0 3.544c-.386 1.273-1.029 2.224-2.626 3.821l-2.956 2.956c-1.597 1.597-2.548 2.24-3.821 2.626a6.04 6.04 0 0 1-3.544 0c-1.273-.386-2.224-1.029-3.821-2.626l-2.956-2.956c-1.597-1.597-2.24-2.548-2.626-3.821a6.04 6.04 0 0 1 0-3.544c.386-1.273 1.029-2.224 2.626-3.821l3.203-3.2c1.451-1.42 2.368-2.017 3.574-2.382M13.91 6l4.528.002c2.03.022 3.1.249 4.212.843a6.04 6.04 0 0 1 2.505 2.505c.627 1.174.845 2.301.845 4.56v4.18c0 2.259-.218 3.387-.845 4.56a6.04 6.04 0 0 1-2.506 2.505c-1.172.627-2.3.845-4.559.845h-4.18c-2.259 0-3.386-.218-4.56-.845a6.04 6.04 0 0 1-2.505-2.506C6.218 21.478 6 20.35 6 18.09l.002-4.528c.022-2.03.249-3.1.843-4.212A6.04 6.04 0 0 1 9.35 6.845C10.524 6.218 11.651 6 13.91 6M40.9 7.696a3.04 3.04 0 0 0-1.802 0c-.737.223-1.294.6-2.57 1.876l-3.151 3.152c-1.122 1.14-1.47 1.676-1.682 2.375a3.05 3.05 0 0 0 0 1.802c.2.66.522 1.175 1.502 2.19l.374.38 2.956 2.957c1.277 1.276 1.834 1.653 2.57 1.876q.902.273 1.803 0c.66-.2 1.175-.522 2.19-1.502l.38-.374 2.957-2.956c1.277-1.277 1.653-1.834 1.876-2.57q.273-.902 0-1.803c-.223-.737-.6-1.294-1.876-2.57l-3.152-3.151c-1.14-1.122-1.677-1.47-2.375-1.682M18.091 9l-4.457.001c-1.6.013-2.226.146-2.869.49a3.04 3.04 0 0 0-1.274 1.274c-.364.68-.491 1.34-.491 3.145l.001 4.456c.013 1.6.146 2.225.49 2.869q.444.83 1.274 1.274c.608.325 1.2.462 2.611.487l.534.004h4.18c1.806 0 2.466-.127 3.145-.49a3.04 3.04 0 0 0 1.274-1.275c.325-.608.462-1.2.487-2.611L23 18.09v-4.18c0-1.806-.127-2.466-.49-3.145a3.04 3.04 0 0 0-1.275-1.274C20.555 9.127 19.895 9 18.09 9"/></svg>
